X:21
T:Sally Wilson
M:4/4
K:HP
e|{g}c3/2d/2 {g}e1c1{gBd}B2{G}A1{d}c1|{Gdc}d3/2{g}f/2 a1f1{gef}e4|{g}f3/2g/2 {ag}a3/2f/2 {g}e1c1 {gBd}B1{e}A1|{g}B4{GdGe}B3e1|!
{g}c3/2d/2 {g}e1c1{gBd}B2{G}A1{d}c1|{Gdc}d3/2{g}f/2 a1f1{gef}e2{g}c3/2d/2|{gef}e2{g}c1e1 {gde}d3/2B/2 {g}G1{d}B1|{g}A4{GAG}A3 ||!
e1 | {ag}a3/2g/2 {a}f1a1{ef}e2{gcd}c1e1|{g}f3/2g/2 a1f1{gef}e4|{g}f3/2g/2 {ag}a3/2f/2 {g}e1c1 {gBd}B1{e}A1|{g}B4{GdGe}B3e1|!
{g}c3/2d/2 {g}e1c1{gBd}B2{G}A1{d}c1|{Gdc}d3/2{g}f/2 a1f1{gef}e2{g}c3/2d/2|{gef}e2{g}c1e1 {gde}d3/2B/2 {g}G1{d}B1|{g}A4{GAG}A3|]

%%newpage

